X:1
T:He's got the whole world/She'll be coming round the mountain/When the saints
M:4/4
L:1/8
Q:1/4=100
K:Cmaj
V:1
% cello
%%MIDI program 42
 G G E | G4 (E2C2)| G2 A2 G G G E| F2 F2 (D2B,2)| G2 A2 G G G E| G4 (E2C2)|G2 A2 G G G E| G2 G2 F2 D2 |C4 z
w:He's got the whole world* in His hand, He's got the whole wide world* in His hand, He's got the whole world* in His hand, He's got the whole world in His hand
 G G E | G4 (E2C2)| G2 A2 G G G E| F2 F2 (D2B,2)| G2 A2 G G G E| G4 (E2C2)|G2 A2 G G G E| G2 G2 F2 D2 |C8 ||
V:2
% tuba
%%MIDI program 58
zzzzzzzzz GA |cc cc AG EG|c6 cd|ee ee gg ge|d6 gf|ee ee dc3|cc cc ff3|ee ee dd dd|c6
w:She'll be co-ming round the moun-tain when she comes, She'll be co-ming round the moun-tain when she comes, She'll be co-ming round the moun-tain, co-ming round the moun-tain, co-ming round the moun-tain when she comes
GA |cc cc AG EG|c6 cd|ee ee gg ge|d6 gf|ee ee dc3|cc cc ff3|ee ee dd dd|c8 ||
V:3
% Saxophone
%%MIDI program 65
zzzzzzzz zzz|z8|z8|z8|z8|z8|z8|z8|z4 z
 C E F|G4 z C E F|G4 z C E F|G2 E2 C2 E2|D4 z E E D|C3C E2 G G| GF3 z2 E F| G2 E2 D2 D2| C8||
w:Oh when the saints, go mar-ching in,  Oh when the saints go mar-ching in, Oh Lord I want to be in that num-ber, when the saints go mar-ching in.

